public/images/social-media/dzen.svg

<svg width="44" height="48" viewBox="0 0 44 48" fill="none" xmlns="http://www.w3.org/2000/svg">
<path d="M23.5929 38.5877L23.8252 37.1135C24.6989 31.5692 28.6626 27.0109 34.0319 25.3758C35.1072 25.0483 36.2167 24.8456 37.3384 24.7718L37.973 24.73C39.2741 24.6444 40.5805 24.6851 41.8737 24.8517L43.4208 25.051C43.4542 25.0553 43.479 25.0842 43.4782 25.1179C43.2279 36.2731 34.5926 45.4756 23.4825 46.5094C23.4456 46.5128 23.4128 46.4853 23.4102 46.4483L23.4061 46.3911C23.2316 43.9569 23.2761 41.512 23.5389 39.0858L23.5929 38.5877Z" fill="#D9E9DF"/>
<path d="M23.1645 9.54175L23.4557 11.0054C24.5509 16.5103 28.6941 20.9061 34.1246 22.3247C35.2122 22.6088 36.3289 22.7669 37.4527 22.7957L38.0884 22.812C39.3919 22.8455 40.6956 22.7524 41.9812 22.5341L43.5189 22.2729C43.5522 22.2673 43.5758 22.2375 43.5737 22.2038C42.8765 11.0676 33.8793 2.21854 22.7367 1.63087C22.6997 1.62892 22.6681 1.65776 22.6669 1.69482L22.6651 1.75215C22.5883 4.19134 22.7307 6.6325 23.0906 9.04621L23.1645 9.54175Z" fill="#D9E9DF"/>
<path d="M20.3643 9.45704L20.1314 10.9311C19.2552 16.4751 15.2895 21.0316 9.91947 22.6643C8.84396 22.9913 7.7344 23.1935 6.61268 23.2668L5.97809 23.3083C4.67691 23.3934 3.37055 23.3521 2.07737 23.1849L0.53043 22.9849C0.496994 22.9806 0.472208 22.9517 0.47298 22.918C0.728236 11.7629 9.36771 2.56424 20.4782 1.53543C20.5152 1.53201 20.5479 1.55958 20.5505 1.59656L20.5546 1.65378C20.728 4.088 20.6824 6.53289 20.4185 8.95896L20.3643 9.45704Z" fill="#D9E9DF"/>
<path d="M20.7797 38.542L20.495 37.077C19.424 31.5674 15.3001 27.1535 9.87591 25.711C8.78955 25.4221 7.67355 25.2592 6.54994 25.2254L5.91428 25.2063C4.61092 25.1671 3.30682 25.2545 2.02033 25.4671L0.481404 25.7215C0.448141 25.727 0.424388 25.7567 0.426347 25.7904C1.07459 36.9296 10.0329 45.8181 21.1728 46.4547C21.2098 46.4568 21.2415 46.4281 21.2429 46.391L21.2449 46.3337C21.3324 43.8949 21.2007 41.4531 20.8514 39.0378L20.7797 38.542Z" fill="#D9E9DF"/>
</svg>

<svg xmlns="http://www.w3.org/2000/svg" width="44" height="48" fill="none"><path fill="#D9E9DF" d="m23.593 38.588.232-1.474a14.655 14.655 0 0 1 13.513-12.342l.635-.042a20 20 0 0 1 3.9.122l1.548.199a.066.066 0 0 1 .057.067c-.25 11.155-8.885 20.358-19.995 21.391a.066.066 0 0 1-.073-.06l-.004-.058c-.174-2.434-.13-4.879.133-7.305zM23.165 9.542l.29 1.463a14.655 14.655 0 0 0 13.998 11.79l.635.017a20 20 0 0 0 3.893-.278l1.538-.261a.066.066 0 0 0 .055-.07C42.877 11.069 33.879 2.22 22.737 1.632a.066.066 0 0 0-.07.064l-.002.057c-.077 2.44.066 4.88.426 7.294zM20.364 9.457l-.233 1.474A14.655 14.655 0 0 1 6.613 23.267l-.635.041a20 20 0 0 1-3.9-.123l-1.548-.2a.066.066 0 0 1-.057-.067C.728 11.763 9.368 2.564 20.478 1.535a.066.066 0 0 1 .072.062l.005.057c.173 2.434.127 4.879-.136 7.305zM20.78 38.542l-.285-1.465A14.655 14.655 0 0 0 6.55 25.225l-.636-.019a20 20 0 0 0-3.894.261l-1.539.255a.066.066 0 0 0-.055.068c.649 11.14 9.607 20.028 20.747 20.665a.066.066 0 0 0 .07-.064l.002-.057a41 41 0 0 0-.394-7.296z"/></svg>
